svgs/light/print.svg

<svg xmlns="http://www.w3.org/2000/svg" viewBox="0 0 512 512"><!-- Font Awesome Pro 6.0.0-alpha2 by @fontawesome - https://fontawesome.com License - https://fontawesome.com/license (Commercial License) --><path d="M416 320H96C78.326 320 64 334.326 64 352V480C64 497.672 78.326 512 96 512H416C433.674 512 448 497.672 448 480V352C448 334.326 433.674 320 416 320ZM416 480H96V352H416V480ZM448 192V70.633C448 62.144 444.628 54.003 438.625 48L399.994 9.369C393.995 3.37 385.859 0 377.375 0H128C92.654 0 64 28.654 64 64V192C28.703 192 0 220.703 0 256V368C0 376.844 7.156 384 16 384S32 376.844 32 368V256C32 238.327 46.327 224 64 224H448C465.673 224 480 238.327 480 256V368C480 376.844 487.156 384 496 384S512 376.844 512 368V256C512 220.703 483.297 192 448 192ZM416 192H96V64C96 46.327 110.327 32 128 32H377.375L416 70.625V192ZM432 248C418.746 248 408 258.744 408 272C408 285.254 418.746 296 432 296S456 285.254 456 272C456 258.744 445.254 248 432 248Z"/></svg>

<svg xmlns="http://www.w3.org/2000/svg" viewBox="0 0 512 512"><!--! Font Awesome Pro 6.3.0 by @fontawesome - https://fontawesome.com License - https://fontawesome.com/license (Commercial License) Copyright 2023 Fonticons, Inc. --><path d="M416 320H96c-17.67 0-32 14.33-32 32v128c0 17.67 14.33 32 32 32h320c17.67 0 32-14.33 32-32v-128C448 334.3 433.7 320 416 320zM416 480H96v-128h320V480zM448 192V70.63C448 62.14 444.6 54 438.6 48l-38.63-38.63C393.1 3.37 385.9 0 377.4 0H128C92.65 0 64 28.65 64 64v128C28.7 192 0 220.7 0 256v112C0 376.8 7.156 384 16 384S32 376.8 32 368V256c0-17.67 14.33-32 32-32h384c17.67 0 32 14.33 32 32v112c0 8.844 7.156 16 16 16s16-7.156 16-16V256C512 220.7 483.3 192 448 192zM416 192H96V64c0-17.67 14.33-32 32-32h249.4L416 70.63V192zM432 248c-13.25 0-24 10.74-24 24c0 13.25 10.75 24 24 24s24-10.75 24-24C456 258.7 445.3 248 432 248z"/></svg>
